outputs/icons/action/love_sharp.svg

<svg xmlns="http://www.w3.org/2000/svg" width="1200" height="1200" fill="none"><g clip-path="url(#a)"><path fill="#000" d="m600 1067.5-72.5-66C270 768 100 614 100 425c0-154 121-275 275-275 87 0 170.5 40.5 225 104.5 54.5-64 138-104.5 225-104.5 154 0 275 121 275 275 0 189-170 343-427.5 577z"/></g><defs><clipPath id="a"><path fill="#fff" d="M0 0h1200v1200H0z"/></clipPath></defs></svg>

<svg width="1200" height="1200" viewBox="0 0 1200 1200" fill="none" xmlns="http://www.w3.org/2000/svg"><g clip-path="url(#clip0_117_760)"><path d="M600 1067.5L527.5 1001.5C270 768 100 614 100 425C100 271 221 150 375 150C462 150 545.5 190.5 600 254.5C654.5 190.5 738 150 825 150C979 150 1100 271 1100 425C1100 614 930 768 672.5 1002L600 1067.5Z" fill="#1D1E23"/></g><defs><clipPath id="clip0_117_760"><path width="24" fill="white" d="M0 0H1200V1200H0V0z"/></clipPath></defs></svg>
